flaticon/user-interface/browser-14.svg

<svg xmlns="http://www.w3.org/2000/svg" width="32" height="32" viewBox="0 0 24 24">
    <path d="M2.800781 1.199219C1.917969 1.199219 1.199219 1.917969 1.199219 2.800781 1.199219 3.683594 1.917969 4.398438 2.800781 4.398438 3.683594 4.398438 4.398438 3.683594 4.398438 2.800781 4.398438 1.917969 3.683594 1.199219 2.800781 1.199219zM2.800781 3.601562C2.359375 3.601562 2 3.242188 2 2.800781 2 2.359375 2.359375 2 2.800781 2 3.242188 2 3.601562 2.359375 3.601562 2.800781 3.601562 3.242188 3.242188 3.601562 2.800781 3.601562zM6.398438 1.199219C5.519531 1.199219 4.800781 1.917969 4.800781 2.800781 4.800781 3.683594 5.519531 4.398438 6.398438 4.398438 7.28125 4.398438 8 3.683594 8 2.800781 8 1.917969 7.28125 1.199219 6.398438 1.199219zM6.398438 3.601562C5.957031 3.601562 5.601562 3.242188 5.601562 2.800781 5.601562 2.359375 5.957031 2 6.398438 2 6.839844 2 7.199219 2.359375 7.199219 2.800781 7.199219 3.242188 6.839844 3.601562 6.398438 3.601562zM10 1.199219C9.117188 1.199219 8.398438 1.917969 8.398438 2.800781 8.398438 3.683594 9.117188 4.398438 10 4.398438 10.882812 4.398438 11.601562 3.683594 11.601562 2.800781 11.601562 1.917969 10.882812 1.199219 10 1.199219zM10 3.601562C9.558594 3.601562 9.199219 3.242188 9.199219 2.800781 9.199219 2.359375 9.558594 2 10 2 10.441406 2 10.800781 2.359375 10.800781 2.800781 10.800781 3.242188 10.441406 3.601562 10 3.601562zM10 3.601562"/>
    <path d="M 0 0 L 0 24 L 24 24 L 24 0 Z M 0.800781 0.800781 L 23.199219 0.800781 L 23.199219 4.800781 L 0.800781 4.800781 Z M 23.199219 23.199219 L 0.800781 23.199219 L 0.800781 5.601562 L 23.199219 5.601562 Z M 23.199219 23.199219"/>
    <path d="M 22 22 L 22 6.800781 L 2 6.800781 L 2 22 Z M 2.800781 7.601562 L 21.199219 7.601562 L 21.199219 21.199219 L 2.800781 21.199219 Z M 2.800781 7.601562"/>
    <path d="M10 10.800781L14 10.800781C14.222656 10.800781 14.398438 10.621094 14.398438 10.398438 14.398438 10.179688 14.222656 10 14 10L10 10C9.777344 10 9.601562 10.179688 9.601562 10.398438 9.601562 10.621094 9.777344 10.800781 10 10.800781zM16 12L8 12C7.777344 12 7.601562 12.179688 7.601562 12.398438 7.601562 12.621094 7.777344 12.800781 8 12.800781L16 12.800781C16.222656 12.800781 16.398438 12.621094 16.398438 12.398438 16.398438 12.179688 16.222656 12 16 12zM16 14L8 14C7.777344 14 7.601562 14.179688 7.601562 14.398438 7.601562 14.621094 7.777344 14.800781 8 14.800781L16 14.800781C16.222656 14.800781 16.398438 14.621094 16.398438 14.398438 16.398438 14.179688 16.222656 14 16 14zM16 16L8 16C7.777344 16 7.601562 16.179688 7.601562 16.398438 7.601562 16.621094 7.777344 16.800781 8 16.800781L16 16.800781C16.222656 16.800781 16.398438 16.621094 16.398438 16.398438 16.398438 16.179688 16.222656 16 16 16zM16 18L8 18C7.777344 18 7.601562 18.179688 7.601562 18.398438 7.601562 18.621094 7.777344 18.800781 8 18.800781L16 18.800781C16.222656 18.800781 16.398438 18.621094 16.398438 18.398438 16.398438 18.179688 16.222656 18 16 18zM18.515625 12.515625C18.359375 12.671875 18.359375 12.925781 18.515625 13.082031L19.835938 14.398438 18.515625 15.71875C18.359375 15.875 18.359375 16.125 18.515625 16.28125 18.59375 16.359375 18.699219 16.398438 18.800781 16.398438 18.902344 16.398438 19.003906 16.359375 19.082031 16.28125L20.964844 14.398438 19.082031 12.515625C18.925781 12.359375 18.671875 12.359375 18.515625 12.515625zM5.484375 12.515625C5.328125 12.359375 5.074219 12.359375 4.917969 12.515625L3.035156 14.398438 4.917969 16.28125C4.996094 16.359375 5.097656 16.398438 5.199219 16.398438 5.300781 16.398438 5.40625 16.359375 5.484375 16.28125 5.640625 16.125 5.640625 15.875 5.484375 15.71875L4.164062 14.398438 5.484375 13.082031C5.640625 12.925781 5.640625 12.671875 5.484375 12.515625zM5.484375 12.515625"/>
</svg>

<svg xmlns="http://www.w3.org/2000/svg" width="32" height="32" viewBox="0 0 24 24">
    <path d="M2.8 1.2c-.882 0-1.6.718-1.6 1.6a1.6 1.6 0 1 0 1.6-1.6zm0 2.402A.802.802 0 0 1 2.8 2a.802.802 0 0 1 0 1.602zm0 0M6.398 1.2A1.6 1.6 0 1 0 8 2.801c0-.884-.719-1.603-1.602-1.603zm0 2.402a.799.799 0 0 1-.796-.801.799.799 0 1 1 1.597 0c0 .441-.36.8-.8.8zm0 0M10 1.2c-.883 0-1.602.718-1.602 1.6A1.6 1.6 0 0 0 10 4.399a1.6 1.6 0 0 0 1.602-1.597c0-.883-.72-1.602-1.602-1.602zm0 2.402A.802.802 0 0 1 10 2a.802.802 0 0 1 0 1.602zm0 0"/>
    <path d="M0 0v24h24V0zm.8.8h22.4v4H.8zm22.4 22.4H.8V5.601h22.4zm0 0"/>
    <path d="M22 22V6.8H2V22zM2.8 7.602h18.4v13.597H2.8zm0 0"/>
    <path d="M10 10.8h4c.223 0 .398-.179.398-.402A.398.398 0 0 0 14 10h-4a.398.398 0 0 0-.398.398c0 .223.175.403.398.403zm0 0M16 12H8a.398.398 0 0 0-.398.398c0 .223.175.403.398.403h8c.223 0 .398-.18.398-.403A.398.398 0 0 0 16 12zm0 0M16 14H8a.398.398 0 0 0-.398.398c0 .223.175.403.398.403h8c.223 0 .398-.18.398-.403A.398.398 0 0 0 16 14zm0 0M16 16H8a.398.398 0 0 0-.398.398c0 .223.175.403.398.403h8c.223 0 .398-.18.398-.403A.398.398 0 0 0 16 16zm0 0M16 18H8a.398.398 0 0 0-.398.398c0 .223.175.403.398.403h8c.223 0 .398-.18.398-.403A.398.398 0 0 0 16 18zm0 0M18.516 12.516a.4.4 0 0 0 0 .566l1.32 1.316-1.32 1.32a.396.396 0 0 0 0 .563.405.405 0 0 0 .285.117c.101 0 .203-.039.281-.117l1.883-1.883-1.883-1.882a.4.4 0 0 0-.566 0zm0 0M5.484 12.516a.4.4 0 0 0-.566 0l-1.883 1.882 1.883 1.883c.078.078.18.117.281.117.102 0 .207-.039.285-.117a.396.396 0 0 0 0-.562l-1.32-1.32 1.32-1.317a.4.4 0 0 0 0-.566zm0 0"/>
</svg>
